X:1
T:Title
%%score { ( 1 2 ) | ( 3 4 ) }
L:1/8
M:6/8
K:G
V:1 treble nm="Grand Piano"
V:2 treble 
V:3 treble 
V:4 treble 
V:1
 z3 z z[Q:1/4=78] z/ A/ | B>BB BAG | [GB]>[FA][FA] [FA]2 [EG]/B/ | [DAc]>[DAc][Ac] [Ac][GB][FA] | %4
 B3- B2 B/c/ | [DBd]>[DBd][DBd] [DGB][CFA][B,=FG] | [CEc]>[Ec][Ec] [Ec]2 [Ge] | %7
 [Gd]>[Gd][Gd] [Fc]>[CDF][CDA] |[M:5/8] [G,B,DG]-[G,B,DG]- [G,B,DG]3 |[M:1/8] [G,DG]/[G,DF]/ | %10
[M:3/4] [G,CE]>[G,CE] [G,CE] [Ec]2 [CE]/[CE]/ | [B,D]>[B,D] [B,D] [DB]2 B/B/ | A>A A^c [GB][Gc] | %13
 [Fd]4- [Fd][Fd]/[Ac]/ | B>B B[DB] [Dc][=Fd] | [Ed]>[Ec] [Ec] [Ec]2 [Ge]/[Ge]/ | %16
 [Gd]>[Gd] [Gd][Fc]- [Fc]/[DF]/[DA] |[M:5/8] [B,DG]-[B,DG]- [B,DG]3 |] %18
V:2
 z3 z2 G | x6 | x6 | x6 | x6 | x6 | x6 | x6 |[M:5/8] x5 |[M:1/8] x |[M:3/4] x6 | x6 | x6 | x6 | %14
 x6 | x6 | x6 |[M:5/8] x5 |] %18
V:3
 z3 z2 B,/C/ | [G,DG]>[G,DG][G,DG] [G,DG][K:bass][G,CD][G,B,D] | [D,D]>[D,D][D,D] [D,D]2 z/ G/ | %3
 D,>C,[D,D] [D,D][D,D][D,D] | [G,DG]3- [G,DG]2 G/A/ | G,>[K:bass]G,G, G,G,G, | %6
 C,>[C,G,][C,G,] [C,G,]2 [C,C] | [D,B,]>[D,B,][D,B,] [D,A,]>D,D, |[M:5/8] G,,-G,,- G,,3 | %9
[M:1/8] B,,/B,,/ |[M:3/4] C,>C, C, [C,G,]2 [C,G,]/[C,G,]/ | %11
 [G,,G,]>[G,,G,] [G,,G,] [G,,G,]2[K:treble] [G,DG]/[G,DG]/ | %12
 [A,DF]>[A,DF] [A,DF][K:bass][A,E] [A,,A,][A,,A,] | [D,A,]4- [D,A,][D,A,]/[D,D]/ | %14
 [G,DG]>[G,DG] [G,DG][K:bass][G,,G,] [A,,F,][B,,G,] | [C,G,]>[C,G,] [C,G,] [C,G,]2 [C,C]/[C,C]/ | %16
 [D,B,]>[D,B,] [D,B,][D,A,]- [D,A,]/[D,C]/[D,C] |[M:5/8] [G,,G,]-[G,,G,]- [G,,G,]3 |] %18
V:4
 z3 z2 G, | x4[K:bass] x2 | z3 z2 [D,D] | x6 | z3 z2 [G,D] | x3/2[K:bass] x9/2 | x6 | x6 | %8
[M:5/8] x5 |[M:1/8] x |[M:3/4] x6 | x5[K:treble] x | x3[K:bass] x3 | x6 | x3[K:bass] x3 | x6 | x6 | %17
[M:5/8] x5 |] %18

